file/bbc-news.svg

<svg clip-rule="evenodd" fill-rule="evenodd" stroke-linejoin="round" stroke-miterlimit="1.41421" viewBox="0 0 560 400" xmlns="http://www.w3.org/2000/svg"><g transform="matrix(2.7 0 0 2.7 1311.4 -1972.2)"><path d="m-432 754.52h100v100h-100z" fill="#b90005"/><g fill="#fff" fill-rule="nonzero"><path d="m-379.423 794.522c0 1.798-2.238 1.691-2.238 1.691h-2.237v-3.248h2.237c2.302-.019 2.238 1.557 2.238 1.557m-4.475-6.51h1.707c1.771.094 1.701 1.411 1.701 1.411 0 1.638-1.954 1.665-1.954 1.665h-1.454zm4.063 3.714s1.528-.652 1.518-2.382c0 0 .248-2.836-3.527-3.182h-4.167v11.888h4.777s3.994.011 3.994-3.354c0 0 .099-2.291-2.595-2.97m-10.79-7.893h17.552v16.54h-17.552zm-9.039 10.689c0 1.798-2.237 1.691-2.237 1.691h-2.237v-3.248h2.237c2.302-.019 2.237 1.557 2.237 1.557m-4.474-6.51h1.706c1.771.094 1.702 1.411 1.702 1.411 0 1.638-1.955 1.665-1.955 1.665h-1.453zm4.063 3.714s1.528-.652 1.518-2.382c0 0 .248-2.836-3.527-3.182h-4.168v11.888h4.778s3.993.011 3.993-3.354c0 0 .1-2.291-2.594-2.97m-10.79-7.893h17.551v16.54h-17.551zm54.45 3.181v2.197s-2.143-1.318-4.509-1.344c0 0-4.42-.087-4.619 4.236 0 0-.148 3.976 4.564 4.203 0 0 1.985.239 4.673-1.477v2.275s-3.611 2.144-7.788.493c0 0-3.512-1.283-3.646-5.494 0 0-.149-4.33 4.539-5.768 0 0 1.25-.479 3.497-.266 0 0 1.345.133 3.289.945m-13.969 13.359h17.551v-16.54h-17.551z"/><g transform="matrix(.169974 0 0 .169974 -510.823 298.938)"><path d="m613.342 3095.48c-5.745-8.97-11.641-18.04-17.688-27.21-5.947-9.17-11.893-18.24-17.84-27.21-5.946-8.97-11.842-17.69-17.688-26.16v80.58h-18.444v-108.09h19.351c9.071 13.1 17.991 26.3 26.759 39.61 8.869 13.3 17.688 26.81 26.457 40.51v-80.12h18.444v108.09z"/><path d="m657.725 2987.39h72.265v16.17h-53.065v27.97h47.32v16.18h-47.32v31.6h55.937v16.17h-75.137z"/><path d="m837.387 3095.48c-3.729-12.9-7.408-25.85-11.036-38.85-3.629-13-7.156-26-10.583-39.01-3.427 12.9-6.954 25.91-10.583 39.01-3.527 13-7.156 25.95-10.885 38.85h-20.258c-5.342-17.64-10.432-35.48-15.269-53.52-4.838-18.04-9.424-36.23-13.758-54.57h20.712c2.923 14.71 5.997 29.48 9.222 44.29 3.326 14.72 6.803 29.13 10.431 43.24 3.83-13.91 7.509-27.77 11.037-41.57 3.628-13.81 7.105-27.62 10.431-41.43h18.898c3.326 13.71 6.753 27.37 10.28 40.97 3.528 13.61 7.156 27.22 10.885 40.82 3.629-14.01 7.055-28.27 10.28-42.78 3.226-14.52 6.3-29.03 9.223-43.54h20.258c-4.435 18.34-9.071 36.53-13.909 54.57s-9.877 35.88-15.118 53.52z"/><path d="m931.159 3097.75c-5.846 0-11.641-.66-17.386-1.97s-11.137-3.32-16.176-6.04v-17.54c10.381 6.45 21.669 9.68 33.864 9.68 7.559 0 13.354-1.42 17.386-4.24 4.132-2.82 6.198-6.7 6.198-11.64 0-2.82-.604-5.14-1.814-6.95-1.209-1.92-2.872-3.48-4.989-4.69-2.016-1.31-4.384-2.37-7.105-3.18-2.621-.8-5.392-1.56-8.315-2.26-5.342-1.31-10.23-2.77-14.665-4.39-4.334-1.71-8.113-3.73-11.338-6.04-3.125-2.32-5.544-5.19-7.257-8.62-1.714-3.43-2.57-7.61-2.57-12.55 0-6.65 1.663-12.35 4.989-17.08 3.326-4.84 8.063-8.57 14.211-11.19s13.455-3.93 21.921-3.93c5.543 0 11.036.65 16.479 1.96 5.442 1.31 10.28 3.08 14.513 5.3v17.08c-4.031-2.52-8.768-4.54-14.211-6.05-5.342-1.61-11.036-2.42-17.083-2.42-6.854 0-12.196 1.31-16.026 3.93-3.829 2.52-5.744 6.15-5.744 10.89 0 3.43.907 6.15 2.721 8.16 1.814 1.92 4.384 3.48 7.71 4.69 3.326 1.11 7.206 2.22 11.641 3.33 4.838 1.21 9.424 2.56 13.758 4.08 4.434 1.51 8.314 3.47 11.64 5.89 3.427 2.32 6.098 5.29 8.013 8.92s2.873 8.17 2.873 13.61c0 6.95-1.714 12.9-5.141 17.84-3.426 4.94-8.415 8.77-14.967 11.49-6.45 2.62-14.16 3.93-23.13 3.93z"/></g></g></g></svg>

<?xml version="1.0" encoding="UTF-8" standalone="no"?>
<!DOCTYPE svg PUBLIC "-//W3C//DTD SVG 1.1//EN" "http://www.w3.org/Graphics/SVG/1.1/DTD/svg11.dtd">
<svg width="100%" height="100%" viewBox="0 0 560 400" version="1.1" xmlns="http://www.w3.org/2000/svg" xmlns:xlink="http://www.w3.org/1999/xlink" xml:space="preserve" xmlns:serif="http://www.serif.com/" style="fill-rule:evenodd;clip-rule:evenodd;stroke-linejoin:round;stroke-miterlimit:1.41421;">
    <g transform="matrix(2.7,0,0,2.7,1311.4,-1972.2)">
        <rect id="rect133" x="-432" y="754.52" width="100" height="100" style="fill:rgb(185,0,5);"/>
        <path id="path53" d="M-379.423,794.522C-379.423,796.32 -381.661,796.213 -381.661,796.213L-383.898,796.213L-383.898,792.965L-381.661,792.965C-379.359,792.946 -379.423,794.522 -379.423,794.522M-383.898,788.012L-382.191,788.012C-380.42,788.106 -380.49,789.423 -380.49,789.423C-380.49,791.061 -382.444,791.088 -382.444,791.088L-383.898,791.088L-383.898,788.012ZM-379.835,791.726C-379.835,791.726 -378.307,791.074 -378.317,789.344C-378.317,789.344 -378.069,786.508 -381.844,786.162L-386.011,786.162L-386.011,798.05L-381.234,798.05C-381.234,798.05 -377.24,798.061 -377.24,794.696C-377.24,794.696 -377.141,792.405 -379.835,791.726M-390.625,783.833L-373.073,783.833L-373.073,800.373L-390.625,800.373L-390.625,783.833ZM-399.664,794.522C-399.664,796.32 -401.901,796.213 -401.901,796.213L-404.138,796.213L-404.138,792.965L-401.901,792.965C-399.599,792.946 -399.664,794.522 -399.664,794.522M-404.138,788.012L-402.432,788.012C-400.661,788.106 -400.73,789.423 -400.73,789.423C-400.73,791.061 -402.685,791.088 -402.685,791.088L-404.138,791.088L-404.138,788.012ZM-400.075,791.726C-400.075,791.726 -398.547,791.074 -398.557,789.344C-398.557,789.344 -398.309,786.508 -402.084,786.162L-406.252,786.162L-406.252,798.05L-401.474,798.05C-401.474,798.05 -397.481,798.061 -397.481,794.696C-397.481,794.696 -397.381,792.405 -400.075,791.726M-410.865,783.833L-393.314,783.833L-393.314,800.373L-410.865,800.373L-410.865,783.833ZM-356.415,787.014L-356.415,789.211C-356.415,789.211 -358.558,787.893 -360.924,787.867C-360.924,787.867 -365.344,787.78 -365.543,792.103C-365.543,792.103 -365.691,796.079 -360.979,796.306C-360.979,796.306 -358.994,796.545 -356.306,794.829L-356.306,797.104C-356.306,797.104 -359.917,799.248 -364.094,797.597C-364.094,797.597 -367.606,796.314 -367.74,792.103C-367.74,792.103 -367.889,787.773 -363.201,786.335C-363.201,786.335 -361.951,785.856 -359.704,786.069C-359.704,786.069 -358.359,786.202 -356.415,787.014M-370.384,800.373L-352.833,800.373L-352.833,783.833L-370.384,783.833L-370.384,800.373Z" style="fill:white;fill-rule:nonzero;"/>
        <g id="flowRoot73" transform="matrix(0.169974,0,0,0.169974,-510.823,298.938)">
            <path id="path81" d="M613.342,3095.48C607.597,3086.51 601.701,3077.44 595.654,3068.27C589.707,3059.1 583.761,3050.03 577.814,3041.06C571.868,3032.09 565.972,3023.37 560.126,3014.9L560.126,3095.48L541.682,3095.48L541.682,2987.39L561.033,2987.39C570.104,3000.49 579.024,3013.69 587.792,3027C596.661,3040.3 605.48,3053.81 614.249,3067.51L614.249,2987.39L632.693,2987.39L632.693,3095.48L613.342,3095.48Z" style="fill:white;fill-rule:nonzero;"/>
            <path id="path83" d="M657.725,2987.39L729.99,2987.39L729.99,3003.56L676.925,3003.56L676.925,3031.53L724.245,3031.53L724.245,3047.71L676.925,3047.71L676.925,3079.31L732.862,3079.31L732.862,3095.48L657.725,3095.48L657.725,2987.39Z" style="fill:white;fill-rule:nonzero;"/>
            <path id="path85" d="M837.387,3095.48C833.658,3082.58 829.979,3069.63 826.351,3056.63C822.722,3043.63 819.195,3030.63 815.768,3017.62C812.341,3030.52 808.814,3043.53 805.185,3056.63C801.658,3069.63 798.029,3082.58 794.3,3095.48L774.042,3095.48C768.7,3077.84 763.61,3060 758.773,3041.96C753.935,3023.92 749.349,3005.73 745.015,2987.39L765.727,2987.39C768.65,3002.1 771.724,3016.87 774.949,3031.68C778.275,3046.4 781.752,3060.81 785.38,3074.92C789.21,3061.01 792.889,3047.15 796.417,3033.35C800.045,3019.54 803.522,3005.73 806.848,2991.92L825.746,2991.92C829.072,3005.63 832.499,3019.29 836.026,3032.89C839.554,3046.5 843.182,3060.11 846.911,3073.71C850.54,3059.7 853.966,3045.44 857.191,3030.93C860.417,3016.41 863.491,3001.9 866.414,2987.39L886.672,2987.39C882.237,3005.73 877.601,3023.92 872.763,3041.96C867.925,3060 862.886,3077.84 857.645,3095.48L837.387,3095.48Z" style="fill:white;fill-rule:nonzero;"/>
            <path id="path87" d="M931.159,3097.75C925.313,3097.75 919.518,3097.09 913.773,3095.78C908.028,3094.47 902.636,3092.46 897.597,3089.74L897.597,3072.2C907.978,3078.65 919.266,3081.88 931.461,3081.88C939.02,3081.88 944.815,3080.46 948.847,3077.64C952.979,3074.82 955.045,3070.94 955.045,3066C955.045,3063.18 954.441,3060.86 953.231,3059.05C952.022,3057.13 950.359,3055.57 948.242,3054.36C946.226,3053.05 943.858,3051.99 941.137,3051.18C938.516,3050.38 935.745,3049.62 932.822,3048.92C927.48,3047.61 922.592,3046.15 918.157,3044.53C913.823,3042.82 910.044,3040.8 906.819,3038.49C903.694,3036.17 901.275,3033.3 899.562,3029.87C897.848,3026.44 896.992,3022.26 896.992,3017.32C896.992,3010.67 898.655,3004.97 901.981,3000.24C905.307,2995.4 910.044,2991.67 916.192,2989.05C922.34,2986.43 929.647,2985.12 938.113,2985.12C943.656,2985.12 949.149,2985.77 954.592,2987.08C960.034,2988.39 964.872,2990.16 969.105,2992.38L969.105,3009.46C965.074,3006.94 960.337,3004.92 954.894,3003.41C949.552,3001.8 943.858,3000.99 937.811,3000.99C930.957,3000.99 925.615,3002.3 921.785,3004.92C917.956,3007.44 916.041,3011.07 916.041,3015.81C916.041,3019.24 916.948,3021.96 918.762,3023.97C920.576,3025.89 923.146,3027.45 926.472,3028.66C929.798,3029.77 933.678,3030.88 938.113,3031.99C942.951,3033.2 947.537,3034.55 951.871,3036.07C956.305,3037.58 960.185,3039.54 963.511,3041.96C966.938,3044.28 969.609,3047.25 971.524,3050.88C973.439,3054.51 974.397,3059.05 974.397,3064.49C974.397,3071.44 972.683,3077.39 969.256,3082.33C965.83,3087.27 960.841,3091.1 954.289,3093.82C947.839,3096.44 940.129,3097.75 931.159,3097.75Z" style="fill:white;fill-rule:nonzero;"/>
        </g>
    </g>
</svg>
